img/contacto/email.svg

<svg height="512" viewBox="0 0 74 74" width="512" xmlns="http://www.w3.org/2000/svg"><g id="Numbers"><text fill="rgb(0,0,0)" font-family="ArialMT, Arial" font-size="18" transform="translate(30.995 -142.544)">1<tspan letter-spacing="-.074em" x="-4.337" y="124">1</tspan><tspan x="4.337" y="124">1</tspan><tspan x="-5.005" y="248">21</tspan><tspan x="-5.005" y="372">31</tspan><tspan x="-5.005" y="496">41</tspan><tspan x="-5.005" y="620">51</tspan><tspan x="-5.005" y="744">61</tspan><tspan x="-5.005" y="868">71</tspan><tspan x="-5.005" y="992">81</tspan><tspan x="-5.005" y="1116">91</tspan><tspan x="-10.011" y="1240">101</tspan><tspan letter-spacing="-.074em" x="-8.675" y="1364">11</tspan><tspan x="8.675" y="1364">1</tspan><tspan x="-10.011" y="1488">121</tspan><tspan x="-10.011" y="1612">131</tspan><tspan x="-10.011" y="1736">141</tspan><tspan x="-10.011" y="1860">151</tspan><tspan x="-10.011" y="1984">161</tspan><tspan x="-10.011" y="2108">171</tspan><tspan x="-10.011" y="2232">181</tspan><tspan x="-10.011" y="2356">191</tspan><tspan x="-10.011" y="2480">201</tspan><tspan x="-9.343" y="2604">2</tspan><tspan letter-spacing="-.074em" x=".668" y="2604">1</tspan><tspan x="9.343" y="2604">1</tspan><tspan x="-10.011" y="2728">221</tspan><tspan x="-10.011" y="2852">231</tspan><tspan x="-10.011" y="2976">241</tspan><tspan x="-10.011" y="3100">251</tspan><tspan x="-10.011" y="3224">261</tspan><tspan x="-10.011" y="3348">271</tspan><tspan x="-10.011" y="3472">281</tspan><tspan x="-10.011" y="3596">291</tspan></text></g><g id="_2_PT" data-name="2 PT"><path d="m67 60h-60a5.006 5.006 0 0 1 -5-5v-36a5.006 5.006 0 0 1 5-5h60a5.006 5.006 0 0 1 5 5v36a5.006 5.006 0 0 1 -5 5zm-60-44a3 3 0 0 0 -3 3v36a3 3 0 0 0 3 3h60a3 3 0 0 0 3-3v-36a3 3 0 0 0 -3-3z"/><path d="m37 47a1 1 0 0 1 -.652-.242l-33.54-28.85 1.3-1.517 32.892 28.29 32.888-28.29 1.3 1.517-33.54 28.85a1 1 0 0 1 -.648.242z"/><path d="m58.37 31.595h2v30.399h-2z" transform="matrix(.737 -.676 .676 .737 -16.016 52.413)"/><path d="m-.741 45.645h30.393v2h-30.393z" transform="matrix(.675 -.737 .737 .675 -29.706 25.8)"/></g></svg>

<svg xmlns="http://www.w3.org/2000/svg" width="70" height="46" viewBox="0 0 70 46">
  <g id="email" transform="translate(-2 -14)">
    <g id="_2_PT" data-name="2 PT">
      <path id="Trazado_603" data-name="Trazado 603" d="M67,60H7a5.006,5.006,0,0,1-5-5V19a5.006,5.006,0,0,1,5-5H67a5.006,5.006,0,0,1,5,5V55a5.006,5.006,0,0,1-5,5ZM7,16a3,3,0,0,0-3,3V55a3,3,0,0,0,3,3H67a3,3,0,0,0,3-3V19a3,3,0,0,0-3-3Z" fill="#f8f9fa"/>
      <path id="Trazado_604" data-name="Trazado 604" d="M37,47a1,1,0,0,1-.652-.242L2.808,17.908l1.3-1.517L37,44.681l32.888-28.29,1.3,1.517-33.54,28.85A1,1,0,0,1,37,47Z" fill="#f8f9fa"/>
      <path id="Trazado_605" data-name="Trazado 605" d="M58.37,31.595h2v30.4h-2Z" transform="translate(-16.016 52.413) rotate(-42.528)" fill="#f8f9fa"/>
      <path id="Trazado_606" data-name="Trazado 606" d="M-.741,45.645H29.652v2H-.741Z" transform="matrix(0.675, -0.737, 0.737, 0.675, -29.706, 25.8)" fill="#f8f9fa"/>
    </g>
  </g>
</svg>
